src/actions/symbolic/electric-car-symbolic.svg

<svg width="16.001" height="16" version="1.1" viewBox="0 0 16.001 16" xmlns="http://www.w3.org/2000/svg">
 <path d="m12.5 1c-0.277 0-0.5 0.223-0.5 0.5v1.5h-1v2c0 1.108 0.892 2 2 2v5.5c0 0.277-0.223 0.5-0.5 0.5s-0.5-0.223-0.5-0.5v-3.5c0-0.4667-0.31708-0.85546-0.74804-0.9668l-1.2949-4.3203a1.0001 1.0001 0 0 0-0.95703-0.71289h-6a1.0001 1.0001 0 0 0-0.95703 0.71289l-1.2949 4.3203c-0.43096 0.11134-0.74805 0.5001-0.74805 0.9668v3c0 0.554 0.446 1 1 1v1c0 0.554 0.446 1 1 1h1c0.554 0 1-0.446 1-1v-1h4v1c0 0.554 0.446 1 1 1h1c0.554 0 1-0.446 1-1v-1c0.0286 0 0.056-2e-3 0.084-4e-3 0.20414 0.58538 0.75931 1.0039 1.416 1.0039 0.831 0 1.5-0.669 1.5-1.5v-5.5c1.108 0 2-0.892 2-2v-2h-1v-1.5c0-0.277-0.223-0.5-0.5-0.5s-0.5 0.223-0.5 0.5v1.5h-1v-1.5c0-0.277-0.223-0.5-0.5-0.5zm-9.5 3h6l1.1992 4h-8.3984zm9 0h3v1c0 0.554-0.446 1-1 1h-1c-0.554 0-1-0.446-1-1v-0.0508zm-11 5h10v3h-10zm1.4727 1c-0.26491 0.0133-0.47266 0.23166-0.47266 0.5 0 0.277 0.223 0.5 0.5 0.5h1c0.277 0 0.5-0.223 0.5-0.5s-0.223-0.5-0.5-0.5h-1c-9e-3 0-0.0188-4.3e-4 -0.0273 0zm6 0c-0.26491 0.0133-0.47266 0.23166-0.47266 0.5 0 0.277 0.223 0.5 0.5 0.5h1c0.277 0 0.5-0.223 0.5-0.5s-0.223-0.5-0.5-0.5h-1c-9e-3 0-0.0188-4.3e-4 -0.0273 0zm-6.4727 3h1v1h-1zm7 0h1v1h-1z" fill="#363636"/>
</svg>

<svg xmlns="http://www.w3.org/2000/svg" width="16.001" height="16">
    <path fill="#050505" fill-opacity=".7" d="M12.5 1c-.277 0-.5.223-.5.5V3h-1v2c0 1.108.892 2 2 2v5.5a.499.499 0 1 1-1 0V9a.997.997 0 0 0-.748-.967l-1.295-4.32A1 1 0 0 0 9 3H3a1 1 0 0 0-.957.713L.748 8.033A.997.997 0 0 0 0 9v3c0 .554.446 1 1 1v1c0 .554.446 1 1 1h1c.554 0 1-.446 1-1v-1h4v1c0 .554.446 1 1 1h1c.554 0 1-.446 1-1v-1c.029 0 .056-.002.084-.004.204.585.76 1.004 1.416 1.004.831 0 1.5-.67 1.5-1.5V7c1.108 0 2-.892 2-2V3h-1V1.5a.499.499 0 1 0-1 0V3h-1V1.5c0-.277-.223-.5-.5-.5zM3 4h6l1.2 4H1.8zm9 0h3v1c0 .554-.446 1-1 1h-1c-.554 0-1-.446-1-1v-.05zM1 9h10v3H1zm1.473 1a.498.498 0 0 0-.473.5c0 .277.223.5.5.5h1a.499.499 0 1 0 0-1H2.473zm6 0a.498.498 0 0 0-.473.5c0 .277.223.5.5.5h1a.499.499 0 1 0 0-1H8.473zM2 13h1v1H2zm7 0h1v1H9z"/>
</svg>
